src/assets/svg/linkedin.svg

<?xml version="1.0" encoding="iso-8859-1"?>
<!-- Generator: Adobe Illustrator 19.0.0, SVG Export Plug-In . SVG Version: 6.00 Build 0)  -->
<svg version="1.1" id="Layer_1" xmlns="http://www.w3.org/2000/svg" xmlns:xlink="http://www.w3.org/1999/xlink" x="0px" y="0px"
	 viewBox="0 0 455 455" style="enable-background:new 0 0 455 455;" xml:space="preserve">
<g>
	<path style="fill-rule:evenodd;clip-rule:evenodd;" d="M246.4,204.35v-0.665c-0.136,0.223-0.324,0.446-0.442,0.665H246.4z"/>
	<path style="fill-rule:evenodd;clip-rule:evenodd;" d="M0,0v455h455V0H0z M141.522,378.002H74.016V174.906h67.506V378.002z
		 M107.769,147.186h-0.446C84.678,147.186,70,131.585,70,112.085c0-19.928,15.107-35.087,38.211-35.087
		c23.109,0,37.31,15.159,37.752,35.087C145.963,131.585,131.32,147.186,107.769,147.186z M385,378.002h-67.524V269.345
		c0-27.291-9.756-45.92-34.195-45.92c-18.664,0-29.755,12.543-34.641,24.693c-1.776,4.34-2.24,10.373-2.24,16.459v113.426h-67.537
		c0,0,0.905-184.043,0-203.096H246.4v28.779c8.973-13.807,24.986-33.547,60.856-33.547c44.437,0,77.744,29.02,77.744,91.398V378.002
		z"/>
</g>
<g>
</g>
<g>
</g>
<g>
</g>
<g>
</g>
<g>
</g>
<g>
</g>
<g>
</g>
<g>
</g>
<g>
</g>
<g>
</g>
<g>
</g>
<g>
</g>
<g>
</g>
<g>
</g>
<g>
</g>
</svg>

<svg width="455" height="455" viewBox="0 0 455 455" fill="none" xmlns="http://www.w3.org/2000/svg">
<path fill-rule="evenodd" clip-rule="evenodd" d="M246.4 204.35V203.685C246.264 203.908 246.076 204.131 245.958 204.35H246.4Z" fill="#7ACAE5"/>
<path fill-rule="evenodd" clip-rule="evenodd" d="M0 0V455H455V0H0ZM141.522 378.002H74.016V174.906H141.522V378.002ZM107.769 147.186H107.323C84.678 147.186 70 131.585 70 112.085C70 92.157 85.107 76.998 108.211 76.998C131.32 76.998 145.521 92.157 145.963 112.085C145.963 131.585 131.32 147.186 107.769 147.186ZM385 378.002H317.476V269.345C317.476 242.054 307.72 223.425 283.281 223.425C264.617 223.425 253.526 235.968 248.64 248.118C246.864 252.458 246.4 258.491 246.4 264.577V378.003H178.863C178.863 378.003 179.768 193.96 178.863 174.907H246.4V203.686C255.373 189.879 271.386 170.139 307.256 170.139C351.693 170.139 385 199.159 385 261.537V378.002Z" fill="#7ACAE5"/>
</svg>
